svg/media/audio_tape_line.svg

<?xml version="1.0" encoding="UTF-8"?>
<svg width="24px" height="24px" viewBox="0 0 24 24" version="1.1" xmlns="http://www.w3.org/2000/svg" xmlns:xlink="http://www.w3.org/1999/xlink">
    <title>audio_tape_line</title>
    <g id="Icon" stroke="none" stroke-width="1" fill="none" fill-rule="evenodd">
        <g id="Media" transform="translate(-192.000000, -192.000000)" fill-rule="nonzero">
            <g id="audio_tape_line" transform="translate(192.000000, 192.000000)">
                <path d="M24,0 L24,24 L0,24 L0,0 L24,0 Z M12.5934901,23.257841 L12.5819402,23.2595131 L12.5108777,23.2950439 L12.4918791,23.2987469 L12.4918791,23.2987469 L12.4767152,23.2950439 L12.4056548,23.2595131 C12.3958229,23.2563662 12.3870493,23.2590235 12.3821421,23.2649074 L12.3780323,23.275831 L12.360941,23.7031097 L12.3658947,23.7234994 L12.3769048,23.7357139 L12.4804777,23.8096931 L12.4953491,23.8136134 L12.4953491,23.8136134 L12.5071152,23.8096931 L12.6106902,23.7357139 L12.6232938,23.7196733 L12.6232938,23.7196733 L12.6266527,23.7031097 L12.609561,23.275831 C12.6075724,23.2657013 12.6010112,23.2592993 12.5934901,23.257841 L12.5934901,23.257841 Z M12.8583906,23.1452862 L12.8445485,23.1473072 L12.6598443,23.2396597 L12.6498822,23.2499052 L12.6498822,23.2499052 L12.6471943,23.2611114 L12.6650943,23.6906389 L12.6699349,23.7034178 L12.6699349,23.7034178 L12.678386,23.7104931 L12.8793402,23.8032389 C12.8914285,23.8068999 12.9022333,23.8029875 12.9078286,23.7952264 L12.9118235,23.7811639 L12.8776777,23.1665331 C12.8752882,23.1545897 12.8674102,23.1470016 12.8583906,23.1452862 L12.8583906,23.1452862 Z M12.1430473,23.1473072 C12.1332178,23.1423925 12.1221763,23.1452606 12.1156365,23.1525954 L12.1099173,23.1665331 L12.0757714,23.7811639 C12.0751323,23.7926639 12.0828099,23.8018602 12.0926481,23.8045676 L12.108256,23.8032389 L12.3092106,23.7104931 L12.3186497,23.7024347 L12.3186497,23.7024347 L12.3225043,23.6906389 L12.340401,23.2611114 L12.337245,23.2485176 L12.337245,23.2485176 L12.3277531,23.2396597 L12.1430473,23.1473072 Z" id="MingCute"></path>
                <path d="M19,4 C20.597725,4 21.903664,5.24892392 21.9949075,6.82372764 L22,7 L22,17 C22,18.597725 20.7511226,19.903664 19.1762773,19.9949075 L19,20 L5,20 C3.40232321,20 2.09633941,18.7511226 2.00509271,17.1762773 L2,17 L2,7 C2,5.40232321 3.24892392,4.09633941 4.82372764,4.00509271 L5,4 L19,4 Z M6.21922,6 L5,6 C4.48716857,6 4.06449347,6.38604429 4.0067278,6.88337975 L4,7 L4,17 C4,17.51285 4.38604429,17.9355092 4.88337975,17.9932725 L5,18 L19,18 C19.51285,18 19.9355092,17.613973 19.9932725,17.1166239 L20,17 L20,7 C20,6.48716857 19.613973,6.06449347 19.1166239,6.0067278 L19,6 L17.7808,6 L16.9701,9.24254 C16.8681667,9.65060333 16.5235611,9.94702736 16.1133649,9.99359759 L16,10 L8,10 C7.57936917,10 7.20822229,9.73758125 7.06356389,9.35095824 L7.02986,9.24254 L6.21922,6 Z M8.5,12 C9.32843,12 10,12.6716 10,13.5 C10,14.3284 9.32843,15 8.5,15 C7.67157,15 7,14.3284 7,13.5 C7,12.6716 7.67157,12 8.5,12 Z M15.5,12 C16.3284,12 17,12.6716 17,13.5 C17,14.3284 16.3284,15 15.5,15 C14.6716,15 14,14.3284 14,13.5 C14,12.6716 14.6716,12 15.5,12 Z M15.7192,6 L8.28078,6 L8.78078,8 L15.2192,8 L15.7192,6 Z" id="形状" fill="#09244B"></path>
            </g>
        </g>
    </g>
</svg>

<svg xmlns="http://www.w3.org/2000/svg" width="24" height="24"><g fill="none" fill-rule="nonzero"><path d="M24 0v24H0V0h24ZM12.593 23.258l-.011.002-.071.035-.02.004-.014-.004-.071-.035c-.01-.004-.019-.001-.024.005l-.004.01-.017.428.005.02.01.013.104.074.015.004.012-.004.104-.074.012-.016.004-.017-.017-.427c-.002-.01-.009-.017-.017-.018Zm.265-.113-.013.002-.185.093-.01.01-.003.011.018.43.005.012.008.007.201.093c.012.004.023 0 .029-.008l.004-.014-.034-.614c-.003-.012-.01-.02-.02-.022Zm-.715.002a.023.023 0 0 0-.027.006l-.006.014-.034.614c0 .012.007.02.017.024l.015-.002.201-.093.01-.008.004-.011.017-.43-.003-.012-.01-.01-.184-.092Z"/><path fill="#09244B" d="M19 4a3 3 0 0 1 2.995 2.824L22 7v10a3 3 0 0 1-2.824 2.995L19 20H5a3 3 0 0 1-2.995-2.824L2 17V7a3 3 0 0 1 2.824-2.995L5 4h14ZM6.22 6H5a1 1 0 0 0-.993.883L4 7v10a1 1 0 0 0 .883.993L5 18h14a1 1 0 0 0 .993-.883L20 17V7a1 1 0 0 0-.883-.993L19 6h-1.22l-.81 3.243a1 1 0 0 1-.857.75L16 10H8a1 1 0 0 1-.936-.649l-.034-.108L6.22 6Zm2.28 6a1.5 1.5 0 1 1 0 3 1.5 1.5 0 0 1 0-3Zm7 0a1.5 1.5 0 1 1 0 3 1.5 1.5 0 0 1 0-3Zm.22-6H8.28l.5 2h6.44l.5-2Z"/></g></svg>
